X:27
T:Once a Night THO4.027
M:6/8
L:1/8
Z:vmp. Peter Dunk 2010/11.from a transcription by Fynn Titford-Mock 2007
B:Thompson's Compleat Collection of 200 Favourite Country Dances Volume IV.
Q:3/8=110
K:F
f2 g afc|Acf Bdf|cba gfe|fcB AGF|f2 g afc|Acf Bdf|cba gfe|f3F3:|
|:Tc=Bc GFE|F=Bd fga|gec c=Bc|d=BG TG3|\
c=BA GFE|F=Bd fga|gec fd=B| c3C3|
c3 Acf|d3 Bdf|cef gab|agf edc|c3 Acf|d3 Bdf|cbg ece|f3F3:|
